src/assets/Imgs/sns.svg

<svg fill="none" height="91" viewBox="0 0 134 91" width="134" xmlns="http://www.w3.org/2000/svg"><path d="m132.262 6.26966c-3.327-5.8247-13.194-6.935246-28.541-3.21832-6.7467 1.63183-14.2073 4.11356-22.0364 7.29786-10.2583-3.90956-21.4492-3.71691-31.5578.578-10.2123 4.3401-18.1104 12.3293-22.2206 22.5055-2.0724 5.1334-3.0511 10.5049-2.9589 15.8649-4.4902 3.581-8.5314 7.1506-12.0084 10.6296-11.06424 11.0941-15.12842 20.0125-11.73201 25.8032 3.39642 5.7907 13.27481 6.7879 28.57591 2.901 12.6646-3.2183 27.8276-9.4737 43.1863-17.7688 1.0017-.5439 2.1875-.6346 3.2467-.2266 1.4162.5439 2.7747 1.5072 4.306 2.935l2.7402 3.275-1.5083-3.9776c-1.1974-4.8728-.472-7.5358 3.0395-11.1734l3.3274-2.6971-4.0297 1.4959c-4.9507 1.1785-7.6563.4646-11.3521-2.9917l-2.7401-3.275 1.5082 3.9776c.6332 2.5837.7254 4.5442.1497 6.3686-.2878.9066-.9556 1.6432-1.8076 2.0965-8.2895 4.4535-16.4985 8.2837-24.2469 11.3321-5.3537-3.6943-9.7633-8.8391-12.538-15.1851-7.9902-18.2333.5526-39.3903 19.0775-47.2548-9.2567 3.9322-13.5281 14.5051-9.533 23.6274 3.9951 9.111 14.737 13.3152 24.0052 9.383 9.3948-3.9889 20.3324.3966 24.1778 9.8023 3.8109 9.315-1.2549 19.9331-10.7418 23.6387-7.0347 2.7424-14.4607 3.1844-21.3687 1.6545-2.4523 1.0879-4.8701 2.1191-7.2418 3.0824 4.9162 1.8924 10.0511 2.8443 15.186 2.8443 5.5954 0 11.1909-1.1219 16.487-3.377 17.6617-7.5018 27.3787-25.6785 24.7187-43.5832 4.64-3.5923 8.808-7.1846 12.389-10.6975 11.202-10.9582 15.37-19.8425 12.042-25.66724zm-92.2899 73.83994c-4.0066 1.4166-7.8636 2.6064-11.5018 3.5357-14.4031 3.6602-21.1844 2.153-22.72718-.4873-1.54278-2.6404.5181-9.179 10.93758-19.6159 2.6366-2.6404 5.607-5.3261 8.8652-8.0458.5527 3.1617 1.4968 6.2893 2.8208 9.315 2.648 6.0287 6.6201 11.2301 11.6054 15.2983zm66.6159-43.0846c-.472-1.5752-1.036-3.139-1.716-4.6915-2.648-6.0287-6.6198-11.2415-11.6165-15.3097-6.0675 2.1531-12.5034 4.8388-19.1121 7.9892-1.6694.7932-3.0049 2.1417-3.7533 3.8075-1.3701 3.0597-1.3701 6.2554-.2763 10.6975l2.2336 5.8701-4.0412-4.8275c-5.4457-5.0994-9.4409-6.1533-16.7403-4.4195l-5.9638 2.1984 4.9046-3.9776c5.181-5.36 6.2517-9.2923 4.4902-16.4768l-2.2336-5.8814 4.0412 4.8275c3.1546 2.9577 5.8142 4.5442 8.9228 5.0314 1.5658.238 3.1661-.068 4.5937-.7479 6.0791-2.9463 12.0429-5.5301 17.7535-7.6832-.0115-.0113-.023-.0113-.0345-.0226 5.9869-2.2664 11.6859-4.07957 16.924-5.34877 14.45-3.50162 21.208-1.91512 22.728.73659 1.519 2.65168-.622 9.16768-11.168 19.49118-2.925 2.8671-6.263 5.8021-9.936 8.7371z" fill="#3f3f3f"/></svg>

<svg width="134" height="91" viewBox="0 0 134 91" fill="none" xmlns="http://www.w3.org/2000/svg">
<path id="Vector" d="M132.262 6.26966C128.935 0.44496 119.068 -0.665586 103.721 3.05134C96.9743 4.68317 89.5137 7.1649 81.6846 10.3492C71.4263 6.43964 60.2354 6.63229 50.1268 10.9272C39.9145 15.2673 32.0164 23.2565 27.9062 33.4327C25.8338 38.5661 24.8551 43.9376 24.9473 49.2976C20.4571 52.8786 16.4159 56.4482 12.9389 59.9272C1.87466 71.0213 -2.18952 79.9397 1.20689 85.7304C4.60331 91.5211 14.4817 92.5183 29.7828 88.6314C42.4474 85.4131 57.6104 79.1577 72.9691 70.8626C73.9708 70.3187 75.1566 70.228 76.2158 70.636C77.632 71.1799 78.9905 72.1432 80.5218 73.571L83.262 76.846L81.7537 72.8684C80.5563 67.9956 81.2817 65.3326 84.7932 61.695L88.1206 58.9979L84.0909 60.4938C79.1402 61.6723 76.4346 60.9584 72.7388 57.5021L69.9987 54.2271L71.5069 58.2047C72.1401 60.7884 72.2323 62.7489 71.6566 64.5733C71.3688 65.4799 70.701 66.2165 69.849 66.6698C61.5595 71.1233 53.3505 74.9535 45.6021 78.0019C40.2484 74.3076 35.8388 69.1628 33.0641 62.8168C25.0739 44.5835 33.6167 23.4265 52.1416 15.562C42.8849 19.4942 38.6135 30.0671 42.6086 39.1894C46.6037 48.3004 57.3456 52.5046 66.6138 48.5724C76.0086 44.5835 86.9462 48.969 90.7916 58.3747C94.6025 67.6897 89.5367 78.3078 80.0498 82.0134C73.0151 84.7558 65.5891 85.1978 58.6811 83.6679C56.2288 84.7558 53.811 85.787 51.4393 86.7503C56.3555 88.6427 61.4904 89.5946 66.6253 89.5946C72.2207 89.5946 77.8162 88.4727 83.1123 86.2176C100.774 78.7158 110.491 60.5391 107.831 42.6344C112.471 39.0421 116.639 35.4498 120.22 31.9369C131.422 20.9787 135.59 12.0944 132.262 6.26966ZM39.9721 80.1096C35.9655 81.5262 32.1085 82.716 28.4703 83.6453C14.0672 87.3055 7.2859 85.7983 5.74312 83.158C4.20034 80.5176 6.26122 73.979 16.6807 63.5421C19.3173 60.9017 22.2877 58.216 25.5459 55.4963C26.0986 58.658 27.0427 61.7856 28.3667 64.8113C31.0147 70.84 34.9868 76.0414 39.9721 80.1096ZM106.588 37.025C106.116 35.4498 105.552 33.886 104.872 32.3335C102.224 26.3048 98.2522 21.092 93.2555 17.0238C87.188 19.1769 80.7521 21.8626 74.1434 25.013C72.474 25.8062 71.1385 27.1547 70.3901 28.8205C69.02 31.8802 69.02 35.0759 70.1138 39.518L72.3474 45.3881L68.3062 40.5606C62.8605 35.4612 58.8653 34.4073 51.5659 36.1411L45.6021 38.3395L50.5067 34.3619C55.6877 29.0019 56.7584 25.0696 54.9969 17.8851L52.7633 12.0037L56.8045 16.8312C59.9591 19.7889 62.6187 21.3754 65.7273 21.8626C67.2931 22.1006 68.8934 21.7946 70.321 21.1147C76.4001 18.1684 82.3639 15.5846 88.0745 13.4315C88.063 13.4202 88.0515 13.4202 88.04 13.4089C94.0269 11.1425 99.7259 9.32933 104.964 8.06013C119.414 4.55851 126.172 6.14501 127.692 8.79672C129.211 11.4484 127.07 17.9644 116.524 28.2879C113.599 31.155 110.261 34.09 106.588 37.025Z" fill="#3F3F3F"/>
</svg>
